X:1
T:Mad Moll of The Cheshire Hunt
M:4/4
R:Reel
L:1/8
K:G
(3DEF| G2 gf edcB | ABcd B2 G2| G2 gf ed B2 | dcAF G2 (3DEF |
G2 gf edcB | ABcd B2 G2| cBcd e2 c2 | dcAF G2:|
FE | DGBG DGBG | DGBdc2 e2 | DFAF DFAF DFAd B2 G2 |
DGBG DGBG | DGBdc2 e2 | e2 d2 c2 B2 | DFAF G2 :|
